X:1
T:La Plata, CMD
T:La Plata, CMD
T:Karl Redan Showalter, 1898
T:Public Domain Courtesy of the Cyber Hymnal™
C:Karl Redan Showalter, 1898
Z:Public Domain
Z:Courtesy of the Cyber Hymnal™
%%score ( 1 2 ) 3
L:1/8
Q:1/4=105
M:6/8
K:G
V:1 treble 
V:2 treble 
V:3 bass 
V:1
 [DG] | [GB]2 [GB] [Gd]2 [GB] | [GB]2 [FA] G2 [FA] | [GB]2 [Bd] [Ac]2 [GB] | [Ac]3- [Ac]2 [FA] | %5
 [GB]2 [Gd] [GB]2 [DG] | [EA]2 [EG] [CE]2 [Cc] | [DB]2 [EA] [DG]2 [DF] | [DG]3- [DG]2 [DG] | %9
 [FA]2 [GB] [FA]2 [Fd] | [Fd]2 [G^c] [Fd]2 [A=c] | [GB]2 [GB] [Ac]2 [GB] | [FA]3- [FA]2 [FA] | %13
 [GB]2 [Gd] [GB]2 [DG] | [EA]2 [EG] [CE]2 [Cc] | [DB]2 [EA] [DG]2 [DF] | [DG]3- [DG]2 |] %17
V:2
 x | x6 | x3 G2 x | x6 | x6 | x6 | x6 | x6 | x6 | x6 | x6 | x6 | x6 | x6 | x6 | x6 | x5 |] %17
V:3
 [G,B,] | [G,D]2 [G,D] [G,B,]2 [G,D] | [G,D]2 [D,C] [E,B,]2 [D,D] | [G,D]2 [G,D] [F,D]2 [G,D] | %4
 [D,D]3- [D,D]2 [D,D] | [G,D]2 [G,B,] [G,D]2 [G,B,] | [C,C]2 [C,C] [C,G,]2 [A,,A,] | %7
 [B,,G,]2 [C,C] [D,B,]2 [D,A,] | [G,,B,]3- [G,,B,]2 [G,B,] | [D,D]2 [D,D] [D,D]2 [D,A,] | %10
 [A,,A,]2 [A,,A,] [D,A,]2 [D,D] | [G,D]2 [G,D] [F,D]2 [G,D] | [D,D]3- [D,D]2 [D,D] | %13
 [G,D]2 [G,B,] [G,D]2 [G,B,] | [C,C]2 [C,C] [C,G,]2 [A,,A,] | [B,,G,]2 [C,C] [D,B,]2 [D,A,] | %16
 [G,,B,]3- [G,,B,]2 |] %17

